X: 32
M:C|
L:1/8
K:D
uA S|Addc dfed|AB=cA FGAF|Dddc defg|afge fdcB|
|:defg adfd|cdef gedc|defg adfd|gece (fd) d2|
defg adfd|cdef gedc|defg a2(gf)|gbag fed"D.S."c S:|


